X:435
T: Soldaten hab ich lieb (154), S. 336
N: T0323
O: Luxemburg
S: Singendes Volk, Esch-Alzette 1937, posth.]
N: Lullingen hhh Franz Feyder, um 1900,
N: mitgeteilt: hhh Heinrich Godefroid (Lehrer)
R: historische, Kriegs- und Soldatenlieder, Liebeslied]
M: 2/4
L: 1/16
K: G
D2 | G3DG2A2 | B6
G2 | c3BBAG2 | A4z4
B3AG2B2 | B2G2A2
G2 | F2A2A2F2 | G2A2B2A2 | B4z4
B3AG2A2 | B2G2A2
G2 | F2A2A2F2 | G2A2B2A2 | G4z2

